X:1
T:Miss Dundas of Arniston
T:Miss Dundas of Arniston
T:Nathaniel Gow
C:Nathaniel Gow
L:1/8
Q:1/8=232
M:4/4
K:D
V:1 treble 
V:1
|: A | FD AF E=C CE | FD AD BD AD | dD AF D=C CE | Dd AF D2 DA | FD AF E=C CE | FD AD BD AD | %7
 dD AF D=C CE | Dd AF D2 Dg | fd ad e=c ce | fd ad bd ad | fd ad e=c ce | fd ec d2 dg | %13
 fd ad e=c ce | fd ge af bg | ad fa g=c eg | f/g/a ef d2- d :| %17

